Numix/16/mimetypes/image-x-adobe-dng.svg

<?xml version="1.0" encoding="UTF-8" standalone="no"?>
<svg
   xmlns:dc="http://purl.org/dc/elements/1.1/"
   xmlns:cc="http://creativecommons.org/ns#"
   xmlns:rdf="http://www.w3.org/1999/02/22-rdf-syntax-ns#"
   xmlns:svg="http://www.w3.org/2000/svg"
   xmlns="http://www.w3.org/2000/svg"
   xmlns:sodipodi="http://sodipodi.sourceforge.net/DTD/sodipodi-0.dtd"
   xmlns:inkscape="http://www.inkscape.org/namespaces/inkscape"
   width="16"
   height="16"
   viewBox="0 0 16 16"
   id="svg2"
   version="1.1"
   inkscape:version="0.91 r13725"
   sodipodi:docname="image-x-adobe-dng.svg">
  <metadata
     id="metadata16">
    <rdf:RDF>
      <cc:Work
         rdf:about="">
        <dc:format>image/svg+xml</dc:format>
        <dc:type
           rdf:resource="http://purl.org/dc/dcmitype/StillImage" />
        <dc:title />
      </cc:Work>
    </rdf:RDF>
  </metadata>
  <defs
     id="defs14">
    <clipPath
       id="clipPath-258929573">
      <g
         transform="translate(0,-1004.3622)"
         id="g17">
        <path
           inkscape:connector-curvature="0"
           d="m -24,13 c 0,1.105 -0.672,2 -1.5,2 -0.828,0 -1.5,-0.895 -1.5,-2 0,-1.105 0.672,-2 1.5,-2 0.828,0 1.5,0.895 1.5,2 z"
           transform="matrix(15.333333,0,0,11.5,414.99999,878.8622)"
           style="fill:#1890d0"
           id="path19" />
      </g>
    </clipPath>
    <clipPath
       id="clipPath-258929573-8">
      <g
         transform="translate(0,-1004.3622)"
         id="g17-2">
        <path
           inkscape:connector-curvature="0"
           d="m -24,13 c 0,1.105 -0.672,2 -1.5,2 -0.828,0 -1.5,-0.895 -1.5,-2 0,-1.105 0.672,-2 1.5,-2 0.828,0 1.5,0.895 1.5,2 z"
           transform="matrix(15.333333,0,0,11.5,414.99999,878.8622)"
           style="fill:#1890d0"
           id="path19-5" />
      </g>
    </clipPath>
  </defs>
  <sodipodi:namedview
     pagecolor="#ffffff"
     bordercolor="#666666"
     borderopacity="1"
     objecttolerance="10"
     gridtolerance="10"
     guidetolerance="10"
     inkscape:pageopacity="0"
     inkscape:pageshadow="2"
     inkscape:window-width="1920"
     inkscape:window-height="1013"
     id="namedview12"
     showgrid="false"
     inkscape:zoom="1"
     inkscape:cx="8.564838"
     inkscape:cy="4.2697454"
     inkscape:window-x="0"
     inkscape:window-y="27"
     inkscape:window-maximized="1"
     inkscape:current-layer="svg2">
    <inkscape:grid
       type="xygrid"
       id="grid3018" />
  </sodipodi:namedview>
  <path
     style="fill:#38a34e;fill-opacity:1"
     d="M 2.667969,-4.46e-4 C 2.324219,-4.46e-4 2,0.3378121 2,0.6964468 L 2,15.303108 C 2,15.641365 2.34375,16 2.667969,16 l 10.664062,0 C 13.65625,16 14,15.641365 14,15.303108 l 0,-11.303554 -4,-4 z"
     id="path4-7"
     inkscape:connector-curvature="0"
     sodipodi:nodetypes="ssssssccs" />
  <path
     style="fill:#000000;fill-opacity:0.19599998"
     d="m 10.583223,3.331585 0.0154,0.019531 0.04005,-0.019531 z M 10.613,3.999554 14,7.663616 14,3.999554 Z"
     id="path6-6"
     inkscape:connector-curvature="0"
     sodipodi:nodetypes="cccccccc" />
  <path
     style="fill:#ffffff;fill-opacity:0.39200003"
     d="m 10,-4.46e-4 3.996396,4 -3.383784,0 C 10.313513,3.999554 10,3.6824369 10,3.3833376 Z"
     id="path8-0"
     inkscape:connector-curvature="0"
     sodipodi:nodetypes="ccssc" />
  <g
     transform="matrix(0.2676368,0,0,0.2678677,1.5731793,2.5700129)"
     style="fill:#ffffff;fill-opacity:1"
     id="g59">
    <g
       id="g61"
       clip-path="url(#clipPath-258929573-8)"
       style="fill:#ffffff">
      <!-- color: #3d3d3d -->
      <g
         id="g63"
         style="fill:#ffffff">
        <path
           style="fill:#ffffff;fill-rule:nonzero;stroke:none"
           d="m 12.101562,9.015625 c -1.066734,0.00511 -2.1078523,0.4149172 -2.8710932,1.185547 l 1.7832032,2.097656 z m 0.953126,0.2089844 -0.775391,2.3574216 3.265625,-0.501953 C 15.005114,10.17137 14.121217,9.4877603 13.054688,9.2246094 Z M 8.5507812,10.902344 c -0.5390879,0.919459 -0.6802629,2.027544 -0.3808593,3.074218 l 2.6484371,-0.40039 z m 7.2929688,1.123047 -2.662109,0.402343 2.263671,2.65625 c 0.535218,-0.915771 0.696149,-2.015548 0.398438,-3.058593 z m -2.835938,1.691406 -1.072265,3.265625 c 1.0541,-0.01471 2.079037,-0.421942 2.833984,-1.183594 z m -1.255859,0.708984 -3.2968749,0.490235 c 0.5457195,0.916683 1.442321,1.603386 2.5175779,1.861328 z"
           transform="matrix(3.7476023,0,0,3.7487449,-20.971715,-24.725684)"
           id="path65"
           inkscape:connector-curvature="0"
           sodipodi:nodetypes="cccccccccccccccccccccccc" />
      </g>
    </g>
  </g>
</svg>

<svg xmlns="http://www.w3.org/2000/svg" viewBox="0 0 16 16">
 <defs>
  
 </defs>
 <path d="m 2.668 0 c -0.344 0 -0.668 0.338 -0.668 0.697 l 0 14.607 c 0 0.338 0.344 0.697 0.668 0.697 l 10.664 0 c 0.324 0 0.668 -0.359 0.668 -0.697 l 0 -11.304 -4 -4 z" style="fill:#38a34e;fill-opacity:1"/>
 <path d="m 10.583 3.332 0.015 0.02 0.04 -0.02 z m 0.03 0.668 3.387 3.664 0 -3.664" style="fill:#000;fill-opacity:0.196"/>
 <path d="m 10 0 3.996 4 -3.384 0 c -0.299 0 -0.613 -0.317 -0.613 -0.616" style="fill:#fff;fill-opacity:0.392"/>
 <g transform="matrix(0.2676368,0,0,0.2678677,1.5731793,2.5700129)" style="fill:#fff;fill-opacity:1">
  <g style="clip-path:url(#clipPath-258929573-8);fill:#fff">
   <!-- color: #3d3d3d -->
   <g style="fill:#fff">
    <path d="m 12.1 9.02 c -1.067 0.005 -2.108 0.415 -2.871 1.186 l 1.783 2.098 z m 0.953 0.209 -0.775 2.357 3.266 -0.502 c -0.54 -0.909 -1.424 -1.592 -2.49 -1.855 m -4.504 1.678 c -0.539 0.919 -0.68 2.028 -0.381 3.074 l 2.648 -0.4 z m 7.293 1.123 -2.662 0.402 2.264 2.656 c 0.535 -0.916 0.696 -2.02 0.398 -3.059 z m -2.836 1.691 -1.072 3.266 c 1.054 -0.015 2.079 -0.422 2.834 -1.184 z m -1.256 0.709 -3.297 0.49 c 0.546 0.917 1.442 1.603 2.518 1.861 z" transform="matrix(3.7476023,0,0,3.7487449,-20.971715,-24.725684)" style="fill:#fff;stroke:none;fill-rule:nonzero"/>
   </g>
  </g>
 </g>
</svg>
